; generated by Slic3r 1.3.0 on 2023-01-08 at 12:29:10

; external perimeters extrusion width = 0.55mm (4.37mm^3/s)
; perimeters extrusion width = 0.70mm (11.44mm^3/s)
; infill extrusion width = 0.62mm (13.45mm^3/s)
; solid infill extrusion width = 0.70mm (3.81mm^3/s)
; top infill extrusion width = 0.70mm (2.86mm^3/s)

M107 ; disable fan
M104 S200 ; set temperature
G28 ; home all axes
G1 Z5 F5000 ; lift nozzle

; Filament gcode

M109 S200 ; set temperature and wait for it to be reached
G21 ; set units to millimeters
G90 ; use absolute coordinates
M82 ; use absolute distances for extrusion
G92 E0 ; reset extrusion distance
G1 Z0.350 F7800.000 ; move to next layer (0)
G1 E-2.00000 F2400.00000 ; retract extruder 0
G92 E0 ; reset extrusion distance
G1 X50.000 Y-26.625 F7800.000 ; move to first skirt point
G1 E2.00000 F2400.00000 ; unretract extruder 0
G1 F1800
G1 X52.259 Y-26.228 E2.07096 ; skirt
G1 X54.247 Y-25.085 E2.14192 ; skirt
G1 X55.726 Y-23.332 E2.21289 ; skirt
G1 X56.519 Y-21.180 E2.28385 ; skirt
G1 X56.625 Y-20.000 E2.32050 ; skirt
G1 X56.625 Y20.000 E3.55815 ; skirt
G1 X56.228 Y22.259 E3.62912 ; skirt
G1 X55.085 Y24.247 E3.70008 ; skirt
G1 X53.332 Y25.726 E3.77104 ; skirt
G1 X51.180 Y26.519 E3.84200 ; skirt
G1 X50.000 Y26.625 E3.87865 ; skirt
G1 X-50.000 Y26.625 E6.97278 ; skirt
G1 X-52.259 Y26.228 E7.04375 ; skirt
G1 X-54.247 Y25.085 E7.11471 ; skirt
G1 X-55.726 Y23.332 E7.18567 ; skirt
G1 X-56.519 Y21.180 E7.25663 ; skirt
G1 X-56.625 Y20.000 E7.29329 ; skirt
G1 X-56.625 Y-20.000 E8.53094 ; skirt
G1 X-56.228 Y-22.259 E8.60190 ; skirt
G1 X-55.085 Y-24.247 E8.67286 ; skirt
G1 X-53.332 Y-25.726 E8.74382 ; skirt
G1 X-51.180 Y-26.519 E8.81479 ; skirt
G1 X-50.000 Y-26.625 E8.85144 ; skirt
G1 X49.925 Y-26.625 E11.94325 ; skirt
G1 E9.94325 F2400.00000 ; retract extruder 0
G92 E0 ; reset extrusion distance
G1 X48.400 Y-18.400 F7800.000 ; move to first perimeter point
G1 E2.00000 F2400.00000 ; unretract extruder 0
G1 F1800
G1 X48.400 Y18.400 E3.13865 ; perimeter
G1 X-48.400 Y18.400 E6.13379 ; perimeter
G1 X-48.400 Y-18.400 E7.27244 ; perimeter
G1 X48.325 Y-18.400 E10.26525 ; perimeter
G1 X49.025 Y-19.025 F7800.000 ; move to first perimeter point
G1 F1800
G1 X49.025 Y19.025 E11.44258 ; perimeter
G1 X-49.025 Y19.025 E14.47638 ; perimeter
G1 X-49.025 Y-19.025 E15.65370 ; perimeter
G1 X48.950 Y-19.025 E18.68519 ; perimeter
G1 X49.650 Y-19.650 F7800.000 ; move to first perimeter point
G1 F1800
G1 X49.650 Y19.650 E19.90118 ; perimeter
G1 X-49.650 Y19.650 E22.97365 ; perimeter
G1 X-49.650 Y-19.650 E24.18965 ; perimeter
G1 X49.575 Y-19.650 E27.25980 ; perimeter
G1 X49.456 Y-19.189 F7800.000 ; move inwards before travel
G1 E25.25980 F2400.00000 ; retract extruder 0
G92 E0 ; reset extrusion distance
G1 X47.532 Y18.018 F7800.000 ; move to first infill point
G1 E2.00000 F2400.00000 ; unretract extruder 0
G1 F1800
G1 X48.018 Y17.532 E2.02132 ; infill
G1 X48.018 Y16.646 E2.04880 ; infill
G1 X46.646 Y18.018 E2.10898 ; infill
G1 X45.761 Y18.018 E2.13645 ; infill
G1 X48.018 Y15.761 E2.23548 ; infill
G1 X48.018 Y14.875 E2.26295 ; infill
G1 X44.875 Y18.018 E2.40084 ; infill
G1 X43.989 Y18.018 E2.42831 ; infill
G1 X48.018 Y13.989 E2.60505 ; infill
G1 X48.018 Y13.103 E2.63252 ; infill
G1 X43.103 Y18.018 E2.84811 ; infill
G1 X42.217 Y18.018 E2.87558 ; infill
G1 X48.018 Y12.217 E3.13003 ; infill
G1 X48.018 Y11.331 E3.15750 ; infill
G1 X41.331 Y18.018 E3.45080 ; infill
G1 X40.446 Y18.018 E3.47827 ; infill
G1 X48.018 Y10.446 E3.81042 ; infill
G1 X48.018 Y9.560 E3.83789 ; infill
G1 X39.560 Y18.018 E4.20889 ; infill
G1 X38.674 Y18.018 E4.23637 ; infill
G1 X48.018 Y8.674 E4.64622 ; infill
G1 X48.018 Y7.788 E4.67369 ; infill
G1 X37.788 Y18.018 E5.12240 ; infill
G1 X36.902 Y18.018 E5.14988 ; infill
G1 X48.018 Y6.902 E5.63744 ; infill
G1 X48.018 Y6.017 E5.66491 ; infill
G1 X36.017 Y18.018 E6.19132 ; infill
G1 X35.131 Y18.018 E6.21880 ; infill
G1 X48.018 Y5.131 E6.78406 ; infill
G1 X48.018 Y4.245 E6.81154 ; infill
G1 X34.245 Y18.018 E7.41566 ; infill
G1 X33.359 Y18.018 E7.44313 ; infill
G1 X48.018 Y3.359 E8.08610 ; infill
G1 X48.018 Y2.473 E8.11358 ; infill
G1 X32.473 Y18.018 E8.79540 ; infill
G1 X31.587 Y18.018 E8.82288 ; infill
G1 X48.018 Y1.587 E9.54356 ; infill
G1 X48.018 Y0.702 E9.57103 ; infill
G1 X30.702 Y18.018 E10.33056 ; infill
G1 X29.816 Y18.018 E10.35803 ; infill
G1 X48.018 Y-0.184 E11.15642 ; infill
G1 X48.018 Y-1.070 E11.18389 ; infill
G1 X28.930 Y18.018 E12.02113 ; infill
G1 X28.044 Y18.018 E12.04860 ; infill
G1 X48.018 Y-1.956 E12.92470 ; infill
G1 X48.018 Y-2.842 E12.95217 ; infill
G1 X27.158 Y18.018 E13.86711 ; infill
G1 X26.273 Y18.018 E13.89459 ; infill
G1 X48.018 Y-3.727 E14.84838 ; infill
G1 X48.018 Y-4.613 E14.87586 ; infill
G1 X25.387 Y18.018 E15.86851 ; infill
G1 X24.501 Y18.018 E15.89598 ; infill
G1 X48.018 Y-5.499 E16.92748 ; infill
G1 X48.018 Y-6.385 E16.95496 ; infill
G1 X23.615 Y18.018 E18.02531 ; infill
G1 X22.729 Y18.018 E18.05279 ; infill
G1 X48.018 Y-7.271 E19.16200 ; infill
G1 X48.018 Y-8.157 E19.18947 ; infill
G1 X21.843 Y18.018 E20.33753 ; infill
G1 X20.958 Y18.018 E20.36500 ; infill
G1 X48.018 Y-9.042 E21.55192 ; infill
G1 X48.018 Y-9.928 E21.57939 ; infill
G1 X20.072 Y18.018 E22.80516 ; infill
G1 X19.186 Y18.018 E22.83263 ; infill
G1 X48.018 Y-10.814 E24.09726 ; infill
G1 X48.018 Y-11.700 E24.12473 ; infill
G1 X18.300 Y18.018 E25.42820 ; infill
G1 X17.414 Y18.018 E25.45568 ; infill
G1 X48.018 Y-12.586 E26.79800 ; infill
G1 X48.018 Y-13.471 E26.82548 ; infill
G1 X16.529 Y18.018 E28.20666 ; infill
G1 X15.643 Y18.018 E28.23413 ; infill
G1 X48.018 Y-14.357 E29.65416 ; infill
G1 X48.018 Y-15.243 E29.68164 ; infill
G1 X14.757 Y18.018 E31.14052 ; infill
G1 X13.871 Y18.018 E31.16800 ; infill
G1 X48.018 Y-16.129 E32.66574 ; infill
G1 X48.018 Y-17.015 E32.69321 ; infill
G1 X12.985 Y18.018 E34.22980 ; infill
G1 X12.099 Y18.018 E34.25728 ; infill
G1 X48.018 Y-17.901 E35.83272 ; infill
G1 X48.018 Y-18.018 E35.83638 ; infill
G1 X47.250 Y-18.018 E35.86020 ; infill
G1 X11.214 Y18.018 E37.44081 ; infill
G1 X10.328 Y18.018 E37.46828 ; infill
G1 X46.365 Y-18.018 E39.04890 ; infill
G1 X45.479 Y-18.018 E39.07637 ; infill
G1 X9.442 Y18.018 E40.65699 ; infill
G1 X8.556 Y18.018 E40.68446 ; infill
G1 X44.593 Y-18.018 E42.26507 ; infill
G1 X43.707 Y-18.018 E42.29255 ; infill
G1 X7.670 Y18.018 E43.87316 ; infill
G1 X6.785 Y18.018 E43.90063 ; infill
G1 X42.821 Y-18.018 E45.48125 ; infill
G1 X41.935 Y-18.018 E45.50872 ; infill
G1 X5.899 Y18.018 E47.08934 ; infill
G1 X5.013 Y18.018 E47.11681 ; infill
G1 X41.050 Y-18.018 E48.69742 ; infill
G1 X40.164 Y-18.018 E48.72490 ; infill
G1 X4.127 Y18.018 E50.30551 ; infill
G1 X3.241 Y18.018 E50.33298 ; infill
G1 X39.278 Y-18.018 E51.91360 ; infill
G1 X38.392 Y-18.018 E51.94107 ; infill
G1 X2.355 Y18.018 E53.52169 ; infill
G1 X1.470 Y18.018 E53.54916 ; infill
G1 X37.506 Y-18.018 E55.12977 ; infill
G1 X36.621 Y-18.018 E55.15725 ; infill
G1 X0.584 Y18.018 E56.73786 ; infill
G1 X-0.302 Y18.018 E56.76534 ; infill
G1 X35.735 Y-18.018 E58.34595 ; infill
G1 X34.849 Y-18.018 E58.37342 ; infill
G1 X-1.188 Y18.018 E59.95404 ; infill
G1 X-2.074 Y18.018 E59.98151 ; infill
G1 X33.963 Y-18.018 E61.56213 ; infill
G1 X33.077 Y-18.018 E61.58960 ; infill
G1 X-2.959 Y18.018 E63.17021 ; infill
G1 X-3.845 Y18.018 E63.19769 ; infill
G1 X32.191 Y-18.018 E64.77830 ; infill
G1 X31.306 Y-18.018 E64.80578 ; infill
G1 X-4.731 Y18.018 E66.38639 ; infill
G1 X-5.617 Y18.018 E66.41386 ; infill
G1 X30.420 Y-18.018 E67.99448 ; infill
G1 X29.534 Y-18.018 E68.02195 ; infill
G1 X-6.503 Y18.018 E69.60257 ; infill
G1 X-7.389 Y18.018 E69.63004 ; infill
G1 X28.648 Y-18.018 E71.21065 ; infill
G1 X27.762 Y-18.018 E71.23813 ; infill
G1 X-8.274 Y18.018 E72.81874 ; infill
G1 X-9.160 Y18.018 E72.84621 ; infill
G1 X26.877 Y-18.018 E74.42683 ; infill
G1 X25.991 Y-18.018 E74.45430 ; infill
G1 X-10.046 Y18.018 E76.03492 ; infill
G1 X-10.932 Y18.018 E76.06239 ; infill
G1 X25.105 Y-18.018 E77.64300 ; infill
G1 X24.219 Y-18.018 E77.67048 ; infill
G1 X-11.818 Y18.018 E79.25109 ; infill
G1 X-12.703 Y18.018 E79.27857 ; infill
G1 X23.333 Y-18.018 E80.85918 ; infill
G1 X22.447 Y-18.018 E80.88665 ; infill
G1 X-13.589 Y18.018 E82.46727 ; infill
G1 X-14.475 Y18.018 E82.49474 ; infill
G1 X21.562 Y-18.018 E84.07536 ; infill
G1 X20.676 Y-18.018 E84.10283 ; infill
G1 X-15.361 Y18.018 E85.68344 ; infill
G1 X-16.247 Y18.018 E85.71092 ; infill
G1 X19.790 Y-18.018 E87.29153 ; infill
G1 X18.904 Y-18.018 E87.31900 ; infill
G1 X-17.133 Y18.018 E88.89962 ; infill
G1 X-18.018 Y18.018 E88.92709 ; infill
G1 X18.018 Y-18.018 E90.50771 ; infill
G1 X17.133 Y-18.018 E90.53518 ; infill
G1 X-18.904 Y18.018 E92.11579 ; infill
G1 X-19.790 Y18.018 E92.14327 ; infill
G1 X16.247 Y-18.018 E93.72388 ; infill
G1 X15.361 Y-18.018 E93.75136 ; infill
G1 X-20.676 Y18.018 E95.33197 ; infill
G1 X-21.562 Y18.018 E95.35944 ; infill
G1 X14.475 Y-18.018 E96.94006 ; infill
G1 X13.589 Y-18.018 E96.96753 ; infill
G1 X-22.447 Y18.018 E98.54815 ; infill
G1 X-23.333 Y18.018 E98.57562 ; infill
G1 X12.703 Y-18.018 E100.15623 ; infill
G1 X11.818 Y-18.018 E100.18371 ; infill
G1 X-24.219 Y18.018 E101.76432 ; infill
G1 X-25.105 Y18.018 E101.79179 ; infill
G1 X10.932 Y-18.018 E103.37241 ; infill
G1 X10.046 Y-18.018 E103.39988 ; infill
G1 X-25.991 Y18.018 E104.98050 ; infill
G1 X-26.877 Y18.018 E105.00797 ; infill
G1 X9.160 Y-18.018 E106.58858 ; infill
G1 X8.274 Y-18.018 E106.61606 ; infill
G1 X-27.762 Y18.018 E108.19667 ; infill
G1 X-28.648 Y18.018 E108.22414 ; infill
G1 X7.389 Y-18.018 E109.80476 ; infill
G1 X6.503 Y-18.018 E109.83223 ; infill
G1 X-29.534 Y18.018 E111.41285 ; infill
G1 X-30.420 Y18.018 E111.44032 ; infill
G1 X5.617 Y-18.018 E113.02093 ; infill
G1 X4.731 Y-18.018 E113.04841 ; infill
G1 X-31.306 Y18.018 E114.62902 ; infill
G1 X-32.191 Y18.018 E114.65650 ; infill
G1 X3.845 Y-18.018 E116.23711 ; infill
G1 X2.959 Y-18.018 E116.26458 ; infill
G1 X-33.077 Y18.018 E117.84520 ; infill
G1 X-33.963 Y18.018 E117.87267 ; infill
G1 X2.074 Y-18.018 E119.45329 ; infill
G1 X1.188 Y-18.018 E119.48076 ; infill
G1 X-34.849 Y18.018 E121.06137 ; infill
G1 X-35.735 Y18.018 E121.08885 ; infill
G1 X0.302 Y-18.018 E122.66946 ; infill
G1 X-0.584 Y-18.018 E122.69693 ; infill
G1 X-36.621 Y18.018 E124.27755 ; infill
G1 X-37.506 Y18.018 E124.30502 ; infill
G1 X-1.470 Y-18.018 E125.88564 ; infill
G1 X-2.355 Y-18.018 E125.91311 ; infill
G1 X-38.392 Y18.018 E127.49372 ; infill
G1 X-39.278 Y18.018 E127.52120 ; infill
G1 X-3.241 Y-18.018 E129.10181 ; infill
G1 X-4.127 Y-18.018 E129.12929 ; infill
G1 X-40.164 Y18.018 E130.70990 ; infill
G1 X-41.050 Y18.018 E130.73737 ; infill
G1 X-5.013 Y-18.018 E132.31799 ; infill
G1 X-5.899 Y-18.018 E132.34546 ; infill
G1 X-41.935 Y18.018 E133.92607 ; infill
G1 X-42.821 Y18.018 E133.95355 ; infill
G1 X-6.785 Y-18.018 E135.53416 ; infill
G1 X-7.670 Y-18.018 E135.56164 ; infill
G1 X-43.707 Y18.018 E137.14225 ; infill
G1 X-44.593 Y18.018 E137.16972 ; infill
G1 X-8.556 Y-18.018 E138.75034 ; infill
G1 X-9.442 Y-18.018 E138.77781 ; infill
G1 X-45.479 Y18.018 E140.35843 ; infill
G1 X-46.365 Y18.018 E140.38590 ; infill
G1 X-10.328 Y-18.018 E141.96651 ; infill
G1 X-11.214 Y-18.018 E141.99399 ; infill
G1 X-47.250 Y18.018 E143.57460 ; infill
G1 X-48.018 Y18.018 E143.59842 ; infill
G1 X-48.018 Y17.901 E143.60207 ; infill
G1 X-12.099 Y-18.018 E145.17752 ; infill
G1 X-12.985 Y-18.018 E145.20499 ; infill
G1 X-48.018 Y17.015 E146.74159 ; infill
G1 X-48.018 Y16.129 E146.76906 ; infill
G1 X-13.871 Y-18.018 E148.26680 ; infill
G1 X-14.757 Y-18.018 E148.29428 ; infill
G1 X-48.018 Y15.243 E149.75317 ; infill
G1 X-48.018 Y14.357 E149.78064 ; infill
G1 X-15.643 Y-18.018 E151.20067 ; infill
G1 X-16.529 Y-18.018 E151.22815 ; infill
G1 X-48.018 Y13.471 E152.60933 ; infill
G1 X-48.018 Y12.586 E152.63680 ; infill
G1 X-17.414 Y-18.018 E153.97913 ; infill
G1 X-18.300 Y-18.018 E154.00661 ; infill
G1 X-48.018 Y11.700 E155.31008 ; infill
G1 X-48.018 Y10.814 E155.33756 ; infill
G1 X-19.186 Y-18.018 E156.60218 ; infill
G1 X-20.072 Y-18.018 E156.62965 ; infill
G1 X-48.018 Y9.928 E157.85542 ; infill
G1 X-48.018 Y9.042 E157.88290 ; infill
G1 X-20.958 Y-18.018 E159.06981 ; infill
G1 X-21.843 Y-18.018 E159.09729 ; infill
G1 X-48.018 Y8.157 E160.24535 ; infill
G1 X-48.018 Y7.271 E160.27282 ; infill
G1 X-22.729 Y-18.018 E161.38203 ; infill
G1 X-23.615 Y-18.018 E161.40951 ; infill
G1 X-48.018 Y6.385 E162.47987 ; infill
G1 X-48.018 Y5.499 E162.50734 ; infill
G1 X-24.501 Y-18.018 E163.53884 ; infill
G1 X-25.387 Y-18.018 E163.56632 ; infill
G1 X-48.018 Y4.613 E164.55897 ; infill
G1 X-48.018 Y3.727 E164.58644 ; infill
G1 X-26.273 Y-18.018 E165.54024 ; infill
G1 X-27.158 Y-18.018 E165.56772 ; infill
G1 X-48.018 Y2.842 E166.48266 ; infill
G1 X-48.018 Y1.956 E166.51014 ; infill
G1 X-28.044 Y-18.018 E167.38623 ; infill
G1 X-28.930 Y-18.018 E167.41370 ; infill
G1 X-48.018 Y1.070 E168.25094 ; infill
G1 X-48.018 Y0.184 E168.27842 ; infill
G1 X-29.816 Y-18.018 E169.07680 ; infill
G1 X-30.702 Y-18.018 E169.10428 ; infill
G1 X-48.018 Y-0.702 E169.86381 ; infill
G1 X-48.018 Y-1.587 E169.89128 ; infill
G1 X-31.587 Y-18.018 E170.61196 ; infill
G1 X-32.473 Y-18.018 E170.63944 ; infill
G1 X-48.018 Y-2.473 E171.32127 ; infill
G1 X-48.018 Y-3.359 E171.34874 ; infill
G1 X-33.359 Y-18.018 E171.99171 ; infill
G1 X-34.245 Y-18.018 E172.01919 ; infill
G1 X-48.018 Y-4.245 E172.62331 ; infill
G1 X-48.018 Y-5.131 E172.65078 ; infill
G1 X-35.131 Y-18.018 E173.21605 ; infill
G1 X-36.017 Y-18.018 E173.24353 ; infill
G1 X-48.018 Y-6.017 E173.76994 ; infill
G1 X-48.018 Y-6.902 E173.79741 ; infill
G1 X-36.902 Y-18.018 E174.28498 ; infill
G1 X-37.788 Y-18.018 E174.31245 ; infill
G1 X-48.018 Y-7.788 E174.76116 ; infill
G1 X-48.018 Y-8.674 E174.78863 ; infill
G1 X-38.674 Y-18.018 E175.19849 ; infill
G1 X-39.560 Y-18.018 E175.22596 ; infill
G1 X-48.018 Y-9.560 E175.59697 ; infill
G1 X-48.018 Y-10.446 E175.62444 ; infill
G1 X-40.446 Y-18.018 E175.95659 ; infill
G1 X-41.331 Y-18.018 E175.98407 ; infill
G1 X-48.018 Y-11.331 E176.27736 ; infill
G1 X-48.018 Y-12.217 E176.30484 ; infill
G1 X-42.217 Y-18.018 E176.55928 ; infill
G1 X-43.103 Y-18.018 E176.58676 ; infill
G1 X-48.018 Y-13.103 E176.80235 ; infill
G1 X-48.018 Y-13.989 E176.82982 ; infill
G1 X-43.989 Y-18.018 E177.00656 ; infill
G1 X-44.875 Y-18.018 E177.03403 ; infill
G1 X-48.018 Y-14.875 E177.17192 ; infill
G1 X-48.018 Y-15.761 E177.19939 ; infill
G1 X-45.761 Y-18.018 E177.29842 ; infill
G1 X-46.646 Y-18.018 E177.32590 ; infill
G1 X-48.018 Y-16.646 E177.38608 ; infill
G1 X-48.018 Y-17.532 E177.41355 ; infill
G1 X-47.532 Y-18.018 E177.43488 ; infill
G1 Z0.650 F7800.000 ; move to next layer (1)
G1 X48.529 Y-18.529 F7800.000 ; move to first perimeter point
G1 F3600
G1 X48.529 Y18.529 E178.43456 ; perimeter
G1 X-48.529 Y18.529 E181.05284 ; perimeter
G1 X-48.529 Y-18.529 E182.05252 ; perimeter
G1 X48.454 Y-18.529 E184.66877 ; perimeter
G1 X49.164 Y-19.164 F7800.000 ; move to first perimeter point
G1 F3600
G1 X49.164 Y19.164 E185.70275 ; perimeter
G1 X-49.164 Y19.164 E188.35532 ; perimeter
G1 X-49.164 Y-19.164 E189.38929 ; perimeter
G1 X49.089 Y-19.164 E192.03984 ; perimeter
G1 X49.725 Y-19.725 F7800.000 ; move to first perimeter point
G1 F1800
G1 X49.725 Y19.725 E192.85292 ; perimeter
G1 X-49.725 Y19.725 E194.90261 ; perimeter
G1 X-49.725 Y-19.725 E195.71569 ; perimeter
G1 X49.650 Y-19.725 E197.76384 ; perimeter
G1 X49.531 Y-19.264 F7800.000 ; move inwards before travel
G1 X48.140 Y-17.646 F7800.000 ; move to first infill point
G1 F1200
G1 X47.646 Y-18.140 E197.78276 ; infill
G1 X46.745 Y-18.140 E197.80713 ; infill
G1 X48.140 Y-16.745 E197.86051 ; infill
G1 X48.140 Y-15.843 E197.88488 ; infill
G1 X45.843 Y-18.140 E197.97273 ; infill
G1 X44.942 Y-18.140 E197.99711 ; infill
G1 X48.140 Y-14.942 E198.11942 ; infill
G1 X48.140 Y-14.041 E198.14380 ; infill
G1 X44.041 Y-18.140 E198.30058 ; infill
G1 X43.140 Y-18.140 E198.32495 ; infill
G1 X48.140 Y-13.140 E198.51621 ; infill
G1 X48.140 Y-12.239 E198.54058 ; infill
G1 X42.239 Y-18.140 E198.76630 ; infill
G1 X41.338 Y-18.140 E198.79067 ; infill
